!!!SOCIAL_FUNCTION:	woman's dance songs
!!!PDT:	1909
!!!OTL: No_180.krn
!!!REG: Great_Lakes
!!!LANG: Non-Tone
!!!LING_GROUP: Algonquin
**kern	**kern
*staff2	*staff1
=1-	=1-
*clefF4	*clefG2
*k[f#c#]	*k[f#c#]
*M2/4	*M2/4
4r	8.f#/L
.	16f#/Jk
8r	8f#/L
8GG/	8f#/J
=2	=2
12GG^/	4f#/
12r	.
12GG/	.
12GG^/	12e/L
12r	12f#/
12GG/	12e/J
=3	=3
2r	12f#/L
.	12e/
.	12f#/J
.	12e/L
.	12f#/
.	12e/J
=4	=4
2r	8.B/L
.	16B/Jk
.	[4B/
=5	=5
2r	2B/]
=6!|:	=6!|:
2r	8.e/L
.	16e/Jk
.	8e/L
.	8d/J
=7	=7
2r	2e/
=8	=8
2r	8.e/L
.	16B/Jk
.	8B/L
.	8A/J
=9	=9
2r	2B/
=10	=10
8.B\L	2r
16F#\Jk	.
8F#\L	.
8E\J	.
=11	=11
[2D\	2r
=12	=12
2D\]	2r
=13	=13
8.F#\L	2r
16F#\Jk	.
8F#\L	.
8E\J	.
=14	=14
2F#\	2r
=15	=15
4E\	2r
8F#\L	.
8E\J	.
=16	=16
8.BB/L	2r
16BB/Jk	.
4BB/	.
=17	=17
[2BB/	2r
=18	=18
2BB/]	2r
==:|!	==:|!
*-	*-
